X: 5
T: The Toormore
R: slide
M: 12/8
L: 1/8
K: Bmin
F2B BAB|d2e f2d|e3 efe|c2e A3|
F2B BAB|d2e f2d|e2d B2A|1 B3 BAG:|2 B3 d2e||
fc/A/f ec/A/e|dF/G/d cF/G/c|Bc/A/B edB|AFE F2E|
F2B BAB|d2e f2d|e2d B2A|1 B3 d2e:|2 B3 BAG||


Tune 110	Setting 28621

